src/svg/creative-commons-remix.svg

<svg height="1000" width="968.8" xmlns="http://www.w3.org/2000/svg">
    <path d="m483.6 15.6c276.9 0 485.2 215.1 485.2 484.4 0 287.3-231.5 484.4-485.2 484.4-261.7 0-483.6-213.9-483.6-484.4 0-259.6 204.5-484.4 483.6-484.4z m1.6 87.3c-230.9 0-397.9 191.2-397.9 397.1 0 214.5 178.1 396.1 397.9 396.1 201.5 0 396.1-158.4 396.1-396.1 0.1-222.3-176.2-397.1-396.1-397.1z m315.8 405.7l9.5 4.3v136.7c-14 7-123.8 53.7-131.4 56.3-12.7-3.6-222.1-91.4-268.2-109.8l-125.4 51.9-123.6-53.7v-124.6l115.8-48.4c-1.3-1.4-0.7 9.8-0.7-137.5l131.4-58 296.7 122.8v120.3z m-137.5 159.2v-85.6h-0.8v-3.5l-222.3-90.8v88.3l222.3 91.6v-0.8z m14.6-112.5l78-32.1-71.9-30.2-76.2 32z m102.2 74.4v-84l-86.5 36.3v84.8z" />
  </svg>

<svg height="1000" width="968.8" xmlns="http://www.w3.org/2000/svg"><path d="M483.6 15.6c276.9 0 485.2 215.1 485.2 484.4 0 287.3 -231.5 484.4 -485.2 484.4C221.9 984.4 0 770.5 0 500 0 240.4 204.5 15.6 483.6 15.6zm1.6 87.3C254.3 102.9 87.3 294.1 87.3 500c0 214.5 178.1 396.1 397.9 396.1 201.5 0 396.1 -158.4 396.1 -396.1C881.4 277.7 705.1 102.9 485.2 102.9zM801 508.6l9.5 4.3v136.7c-14 7 -123.8 53.7 -131.4 56.3C666.4 702.3 457 614.5 410.9 596.1L285.5 648 161.9 594.3V469.7l115.8 -48.4c-1.3 -1.4 -.7 9.8 -.7 -137.5l131.4 -58 296.7 122.8v120.3l95.9 39.7zM663.5 667.8v-85.6h-.8v-3.5L440.4 487.9v88.3l222.3 91.6v-.8l.8 .8zm14.6 -112.5l78 -32.1L684.2 493 608 525l70.1 30.3zm102.2 74.4v-84L693.8 582v84.8l86.5 -37.1z"/></svg>
